X: 3
T: Polska efter Lissmyr Erik Persson
O: v\"astra Dalarna
R: polska, springlek
S: https://spillefolk.dk/nodesamling/visnode.php?key=po-lissmyrerik3
M: 3/4
L: 1/8
K: Dm
% - - - - - - - - - -
V: 1 staves=2
|: (A | A)>a  a<a g>a | f>f e<d e>f | e<^c Ac  d>e |1,3 (3fdf e<^c A :|2,4 (3fe^c d3 :|
|: (A | d)>^c A>c d>e | f>f e<d e>f | e>^c A>c d>e |1,3 (3fdf e<^c A :|2,4 (3fe^c d3 :|
% - - - - - - - - - -
V: 2
|: (E | F)>f f<f e>f | d>d ^c<A c>d | ^c<A FA  F>G |1,3 (3AFA  G<A E :|2,4 (3d^cA F3 :|
|: (E | F)>E D>E F>A | d>d ^c<A c>d | ^c>A G>A F>A |1,3 (3dAd ^c<A F :|2,4 (3GEG  F3 :|
